svg/speaker_play.svg

<svg xmlns="http://www.w3.org/2000/svg" viewBox="0 0 24 24"><path d="M16 15v6l5-3zm-3.72 4.81c-.41.11-.83.19-1.28.19-2.76 0-5-2.24-5-5s2.24-5 5-5c1.89 0 3.5 1.06 4.37 2.61.79-.38 1.69-.61 2.63-.61V4a2 2 0 0 0-2-2H6c-1.11 0-2 .89-2 2v16c0 1.11.89 2 2 2h7.54c-.54-.63-1-1.37-1.26-2.19M11 4c1.11 0 2 .89 2 2s-.89 2-2 2a2 2 0 0 1-2-2c0-1.11.89-2 2-2m2.74 9.78A6 6 0 0 0 12 17.81c-.31.12-.64.19-1 .19-1.66 0-3-1.34-3-3s1.34-3 3-3c1.22 0 2.27.73 2.74 1.78"/></svg>

<svg xmlns="http://www.w3.org/2000/svg" id="mdi-speaker-play" viewBox="0 0 24 24"><path d="M16 15V21L21 18L16 15M12.28 19.81C11.87 19.92 11.45 20 11 20C8.24 20 6 17.76 6 15S8.24 10 11 10C12.89 10 14.5 11.06 15.37 12.61C16.16 12.23 17.06 12 18 12V4C18 2.89 17.1 2 16 2H6C4.89 2 4 2.89 4 4V20C4 21.11 4.89 22 6 22H13.54C13 21.37 12.54 20.63 12.28 19.81M11 4C12.11 4 13 4.89 13 6S12.11 8 11 8C9.89 8 9 7.1 9 6C9 4.89 9.89 4 11 4M13.74 13.78C12.7 14.82 12.06 16.24 12 17.81C11.69 17.93 11.36 18 11 18C9.34 18 8 16.66 8 15S9.34 12 11 12C12.22 12 13.27 12.73 13.74 13.78Z" /></svg>
